Logos/opencti_logo.svg

<svg xmlns="http://www.w3.org/2000/svg" width="330" height="330"><path fill="#517bc9" d="M43 12v111c0 21.422-2.047 43.955 2.517 65 3.646 16.812 11.106 33.237 19.789 48C69.3 242.792 77.17 250.471 79 258l6.333 6L103 283l21 13 7-6 4-8-8-7c-9.168-2.337-18.381-14.162-24.7-20.83-6.732-7.104-15.296-15.725-18.536-25.17-9.296-27.098 12.046-59.287 32.276-74.975 6.992-5.422 15.01-10.161 22.96-14.025 4.417-2.147 10.482-3.674 13-8l-35 12.54-14 5.46-12 8-12 12-10 29h-1c-12.931-54.593-7-113.892-7-170l43 1h124l13.682-.603L245 12H43z"/><path fill="#01bdd5" d="M258 12c3.506 10.964 3.445 21.302 18 17 0 36.122.517 64.57-25.083 93-9.251 10.273-20.985 19.567-32.917 26.528-4.164 2.429-13.982 5.697-15 10.472l42-19.449L267 125l7-7 2-4c0 36.06 1.878 69.245-13 99-2.606 5.213-11.357 26.161-16 25-1.664 7.651-13.61 21.786-21 24-1.459 5.074-7.91 8.842-12 11.961-11.547 8.806-29.914 21.169-45 21.761-5.354.211-9.767-3.697-15-3.991-5.642-.316-17.208 7.017-19 12.269l31 11 13-3 32-13 34-27 10-10c2.002-8.801 12.347-18.074 17.1-26 9.238-15.407 16.105-32.54 20.302-50 4.513-18.777 1.598-40.796 1.598-60V12h-36m-6 16v35c-13.9-4.521-28.103-8.01-42-12.519-6.473-2.1-16.203-6.742-22.999-6.24-4.506.334-6.952 4.227-9.001 7.759l74 22-2 7c-20.183-5.235-39.852-12.218-60-17.478-8.939-2.333-19.468-8.597-22 4.478l78 23c-5.526 9.391-13.612 3.47-22 1.336C205.348 87.589 184.208 76.45 165 76l1.603 9.992L187 92.478 234 106v1c-20.612 9.112-46.069-9.168-68-12l2.857 10.297L181 109.671 213 119v1l-11 3.485L171 115c2.878 10.522 7.089 11.527 16 16l-8 3 5 15c13.224-1.791 27.579-10.202 39-16.862 5.019-2.926 10.276-8.038 16-9.138 1.271-4.097 5.896-6.776 8.711-10.001 5.132-5.879 9.374-12.667 12.108-19.999 8.183-21.95-2.17-43.532-5.819-65h-2z"/><path fill="#517bc9" d="m184 32-6 3c-8.034 10.916-18.369 17.777-23.652 31-13.636 34.129 10.798 66.437 18.652 98-3.897-1.819-22.106-13.222-24.338-6.837-1.037 2.966 1.629 6.077 2.338 8.837l30 14 3 11c-12.768-8.066-27.023-16.16-41-21.884-3.038-1.245-11.06-7.122-13.968-3.497-4.393 5.478 6.585 11.049 9.972 12.971C153.356 186.733 171.81 200.878 188 204l1 10c-9.278-5.087-18.736-9.872-28-14.992-6.324-3.495-12.595-7.069-19-10.421-7.341-3.841-14.813-9.025-22.995-10.934-3.933-.918-7.398 1.931-4.973 5.972 3.403 5.67 13.346 9.422 18.968 12.455 14.34 7.737 28.682 15.476 43 23.249 7.365 3.999 12.61 5.587 12 14.671a1082.632 1082.632 0 0 1-61-33c-3.684-2.149-18.589-11.686-22-6-2.245 3.742 2.312 5.875 4 7 4.291 2.861 18.424 11.304 18 13l11 5 32 17 13 8-5 5-11-8c-3.896.779-8.236-4.015-13-6-12.875-5.364-24.123-14.635-37-20-3.104-1.293-18.576-6.224-13 4 3.564 6.535 19.671 12.835 26 16 3.538 1.769 9.621 3.516 9 6l32 15-24 27c8.216-2.6 15.711-8.389 23-12.908 7.701-4.775 14.855-10.182 20.791-17.092 30.742-35.784 1.125-88.263-13.587-124.015C168.22 108.154 153.32 71.435 178 54c1.082-8.65 15.153-12.82 6-22z"/><path fill="#2e97ce" d="m185 43 1 1-1-1m-6 6 1 1-1-1m-1 1 1 1-1-1m-7 9 1 1-1-1m-.667 1.667.334.666-.334-.666M169 62l1 1-1-1m-1 2 1 1-1-1m-1 2 1 1-1-1m-3 12v7h1l-1-7m2 20v4h1l-1-4m1.333 5.667.334.666-.334-.666M171 117l1 1-1-1m1.333 2.667.334.666-.334-.666M173 122l1 1-1-1m1.333 2.667.334.666-.334-.666M175 126l1 1-1-1m3 9 1 1-1-1m1 2 1 1-1-1m1.333 2.667.334.666-.334-.666z"/><path fill="#01bdd5" d="m111 213-.066-8.406-4.848-9.261 8.639-1.57L119 187c-2.896-1.521-10.269-8.476-2.89-9.867 4.733-.893 9.495 1.929 14.89.867l1-4c-2.637-2.182-7.096-7.718-.941-9.184 3.558-.847 6.598 2.508 9.941 3.029 3.632.565 7.065-2.067 10-3.845-10.314-12.564 12.201-6.065 19-8l-5-15c-25.352 4.505-58.575 29.078-64.181 55-1.9 8.79-1.767 17.15-.769 26 .279 2.473.215 8.37 3.263 9.248 3.114.897 6.477-3.11 5.856-6.04C108.014 219.764 98.79 213.924 111 213z"/><path fill="#2e97ce" d="m165 142 1 1-1-1m16 0 1 1-1-1m-14.667 2.667.334.666-.334-.666m16 0 .334.666-.334-.666M167 147l1 1-1-1m16 0 1 1-1-1m-15 2 1 1-1-1m-19 5 1 1-1-1m3.667.333.666.334-.666-.334M170 154l1 1-1-1m-22 1 1 1-1-1m7 0 1 1-1-1m-8 1v5h1l-1-5m9 0 1 1-1-1m2 1 1 1-1-1m2 1 1 1-1-1m-12 3 1 1-1-1m1 1 1 1-1-1m-16 2 1 1-1-1m2 1 1 1-1-1m-8 1v5h1l-1-5m10 0 1 1-1-1m2 1 1 1-1-1m1 1 1 1-1-1m-12 3 1 1-1-1m1 1 1 1-1-1m2 1 1 1-1-1m1 1 1 1-1-1m-17 2v1h3l-3-1m-2 1 1 1-1-1m6 0 1 1-1-1m2 1 1 1-1-1m-9 1v4h1l-1-4m11 0 1 1-1-1m-8 6 1 1-1-1m2 1 1 1-1-1m-10.333 7.333.666.334-.666-.334M110 193l1 1-1-1m-5 1 1 1-1-1m7 0 1 1-1-1m-7 5 1 1-1-1m2 2 1 1-1-1m1.667 1.333.666.334-.666-.334M110 203l1 1-1-1m-.333 10.333.666.334-.666-.334M103 215v4h1l-1-4m1 5 1 1-1-1m1 1 1 1-1-1m2 1 1 1-1-1m2 1 1 1-1-1z"/><path fill="#ff01a1" d="m110 224 1 1-1-1z"/></svg>

<?xml version="1.0" standalone="yes"?>
<svg xmlns="http://www.w3.org/2000/svg" width="330" height="330">
<path fill="#517bc9" d="M43 12L43 123C43 144.422 40.9525 166.955 45.517 188C49.1632 204.812 56.6228 221.237 65.3056 236C69.3006 242.792 77.1699 250.471 79 258L85.3333 264L103 283L124 296L131 290L135 282L127 275C117.832 272.663 108.619 260.838 102.3 254.17C95.5682 247.066 87.004 238.445 83.7639 229C74.468 201.902 95.8099 169.713 116.04 154.025C123.032 148.603 131.05 143.864 139 140C143.417 137.853 149.482 136.326 152 132L117 144.54L103 150L91 158L79 170L69 199L68 199C55.0687 144.407 61 85.1075 61 29L104 30L195 30L228 30L241.682 29.3966L245 12L43 12z"/>
<path fill="#01bdd5" d="M258 12C261.506 22.9643 261.445 33.3022 276 29C276 65.1224 276.517 93.5695 250.917 122C241.666 132.273 229.932 141.567 218 148.528C213.836 150.957 204.018 154.225 203 159L245 139.551L267 125L274 118L276 114C276 150.06 277.878 183.245 263 213C260.394 218.213 251.643 239.161 247 238C245.336 245.651 233.39 259.786 226 262C224.541 267.074 218.09 270.842 214 273.961C202.453 282.767 184.086 295.13 169 295.722C163.646 295.933 159.233 292.025 154 291.731C148.358 291.415 136.792 298.748 135 304L166 315L179 312L211 299L245 272L255 262C257.002 253.199 267.347 243.926 272.1 236C281.338 220.593 288.205 203.46 292.402 186C296.915 167.223 294 145.204 294 126L294 12L258 12M252 28L252 63C238.1 58.4787 223.897 54.9897 210 50.4815C203.527 48.3817 193.797 43.7391 187.001 44.2415C182.495 44.5746 180.049 48.4682 178 52L252 74L250 81C229.817 75.765 210.148 68.7822 190 63.5224C181.061 61.1889 170.532 54.9248 168 68L246 91C240.474 100.391 232.388 94.4703 224 92.3356C205.348 87.5887 184.208 76.4495 165 76L166.603 85.9915L187 92.4776L234 106L234 107C213.388 116.112 187.931 97.8322 166 95L168.857 105.297L181 109.671L213 119L213 120L202 123.485L171 115C173.878 125.522 178.089 126.527 187 131L179 134L184 149C197.224 147.209 211.579 138.798 223 132.138C228.019 129.212 233.276 124.1 239 123C240.271 118.903 244.896 116.224 247.711 112.999C252.843 107.12 257.085 100.332 259.819 93C268.002 71.0504 257.649 49.468 254 28L252 28z"/>
<path fill="#517bc9" d="M184 32L178 35C169.966 45.9159 159.631 52.7773 154.348 66C140.712 100.129 165.146 132.437 173 164C169.103 162.181 150.894 150.778 148.662 157.163C147.625 160.129 150.291 163.24 151 166L181 180L184 191C171.232 182.934 156.977 174.84 143 169.116C139.962 167.871 131.94 161.994 129.032 165.619C124.639 171.097 135.617 176.668 139.004 178.59C153.356 186.733 171.81 200.878 188 204L189 214C179.722 208.913 170.264 204.128 161 199.008C154.676 195.513 148.405 191.939 142 188.587C134.659 184.746 127.187 179.562 119.005 177.653C115.072 176.735 111.607 179.584 114.032 183.625C117.435 189.295 127.378 193.047 133 196.08C147.34 203.817 161.682 211.556 176 219.329C183.365 223.328 188.61 224.916 188 234C167.45 223.725 146.886 212.6 127 201C123.316 198.851 108.411 189.314 105 195C102.755 198.742 107.312 200.875 109 202C113.291 204.861 127.424 213.304 127 215L138 220L170 237L183 245L178 250L167 242C163.104 242.779 158.764 237.985 154 236C141.125 230.636 129.877 221.365 117 216C113.896 214.707 98.4235 209.776 104 220C107.564 226.535 123.671 232.835 130 236C133.538 237.769 139.621 239.516 139 242L171 257L147 284C155.216 281.4 162.711 275.611 170 271.092C177.701 266.317 184.855 260.91 190.791 254C221.533 218.216 191.916 165.737 177.204 129.985C168.22 108.154 153.32 71.4352 178 54C179.082 45.3498 193.153 41.1802 184 32z"/>
<path fill="#2e97ce" d="M185 43L186 44L185 43M179 49L180 50L179 49M178 50L179 51L178 50M171 59L172 60L171 59M170.333 60.6667L170.667 61.3333L170.333 60.6667M169 62L170 63L169 62M168 64L169 65L168 64M167 66L168 67L167 66M164 78L164 85L165 85L164 78M166 98L166 102L167 102L166 98M167.333 103.667L167.667 104.333L167.333 103.667M171 117L172 118L171 117M172.333 119.667L172.667 120.333L172.333 119.667M173 122L174 123L173 122M174.333 124.667L174.667 125.333L174.333 124.667M175 126L176 127L175 126M178 135L179 136L178 135M179 137L180 138L179 137M180.333 139.667L180.667 140.333L180.333 139.667z"/>
<path fill="#01bdd5" d="M111 213L110.934 204.594L106.086 195.333L114.725 193.763L119 187C116.104 185.479 108.731 178.524 116.11 177.133C120.843 176.24 125.605 179.062 131 178L132 174C129.363 171.818 124.904 166.282 131.059 164.816C134.617 163.969 137.657 167.324 141 167.845C144.632 168.41 148.065 165.778 151 164C140.686 151.436 163.201 157.935 170 156L165 141C139.648 145.505 106.425 170.078 100.819 196C98.9187 204.79 99.0525 213.15 100.05 222C100.329 224.473 100.265 230.37 103.313 231.248C106.427 232.145 109.79 228.138 109.169 225.208C108.014 219.764 98.7905 213.924 111 213z"/>
<path fill="#2e97ce" d="M165 142L166 143L165 142M181 142L182 143L181 142M166.333 144.667L166.667 145.333L166.333 144.667M182.333 144.667L182.667 145.333L182.333 144.667M167 147L168 148L167 147M183 147L184 148L183 147M168 149L169 150L168 149M149 154L150 155L149 154M152.667 154.333L153.333 154.667L152.667 154.333M170 154L171 155L170 154M148 155L149 156L148 155M155 155L156 156L155 155M147 156L147 161L148 161L147 156M156 156L157 157L156 156M158 157L159 158L158 157M160 158L161 159L160 158M148 161L149 162L148 161M149 162L150 163L149 162M133 164L134 165L133 164M135 165L136 166L135 165M127 166L127 171L128 171L127 166M137 166L138 167L137 166M139 167L140 168L139 167M140 168L141 169L140 168M128 171L129 172L128 171M129 172L130 173L129 172M131 173L132 174L131 173M132 174L133 175L132 174M115 176L115 177L118 177L115 176M113 177L114 178L113 177M119 177L120 178L119 177M121 178L122 179L121 178M112 179L112 183L113 183L112 179M123 179L124 180L123 179M115 185L116 186L115 185M117 186L118 187L117 186M106.667 193.333L107.333 193.667L106.667 193.333M110 193L111 194L110 193M105 194L106 195L105 194M112 194L113 195L112 194M105 199L106 200L105 199M107 201L108 202L107 201M108.667 202.333L109.333 202.667L108.667 202.333M110 203L111 204L110 203M109.667 213.333L110.333 213.667L109.667 213.333M103 215L103 219L104 219L103 215M104 220L105 221L104 220M105 221L106 222L105 221M107 222L108 223L107 222M109 223L110 224L109 223z"/>
<path fill="#ff01a1" d="M110 224L111 225L110 224z"/>
</svg>
